svg/logo/mastodon_fill.svg

<?xml version="1.0" encoding="UTF-8"?>
<svg width="24px" height="24px" viewBox="0 0 24 24" version="1.1" xmlns="http://www.w3.org/2000/svg" xmlns:xlink="http://www.w3.org/1999/xlink">
    <title>mastodon_fill</title>
    <g id="Icon" stroke="none" stroke-width="1" fill="none" fill-rule="evenodd">
        <g id="Logo" transform="translate(-384.000000, -240.000000)">
            <g id="mastodon_fill" transform="translate(384.000000, 240.000000)">
                <path d="M24,0 L24,24 L0,24 L0,0 L24,0 Z M12.5935,23.2578 L12.5819,23.2595 L12.5109,23.295 L12.4919,23.2987 L12.4767,23.295 L12.4057,23.2595 C12.3958,23.2564 12.387,23.259 12.3821,23.2649 L12.378,23.2758 L12.3609,23.7031 L12.3659,23.7235 L12.3769,23.7357 L12.4805,23.8097 L12.4953,23.8136 L12.5071,23.8097 L12.6107,23.7357 L12.6233,23.7197 L12.6267,23.7031 L12.6096,23.2758 C12.6076,23.2657 12.601,23.2593 12.5935,23.2578 Z M12.8584,23.1453 L12.8445,23.1473 L12.6598,23.2397 L12.6499,23.2499 L12.6472,23.2611 L12.6651,23.6906 L12.6699,23.7034 L12.6784,23.7105 L12.8793,23.8032 C12.8914,23.8069 12.9022,23.803 12.9078,23.7952 L12.9118,23.7812 L12.8777,23.1665 C12.8753,23.1546 12.8674,23.147 12.8584,23.1453 Z M12.143,23.1473 C12.1332,23.1424 12.1222,23.1453 12.1156,23.1526 L12.1099,23.1665 L12.0758,23.7812 C12.0751,23.7927 12.0828,23.8019 12.0926,23.8046 L12.1083,23.8032 L12.3092,23.7105 L12.3186,23.7024 L12.3225,23.6906 L12.3404,23.2611 L12.3372,23.2485 L12.3278,23.2397 L12.143,23.1473 Z" id="MingCute" fill-rule="nonzero"></path>
                <path d="M7.47634,2.43041 C10.4665,1.90551 13.4383,1.89766 16.4315,2.41439 C18.5681,2.78324 20.2082,4.43614 20.5953,6.55651 C21.0264,8.91776 21.1232,11.2392 20.6359,13.6644 C20.3491,15.0916 18.6136,16.4365 16.6093,16.7968 C15.0598,17.0752 10.1249,17.2186 8.49992,16.9999 C8.93742,18.9999 13.1332,18.6528 13.9999,18.4999 C14.0693,18.4876 14.1482,18.4731 14.234,18.4572 L14.2343,18.4572 L14.2343,18.4572 C14.8056,18.3517 15.6842,18.1896 16.1111,18.2759 C16.7212,18.3993 17.2632,18.8294 17.2614,19.5026 C17.2598,20.0772 16.8468,20.5042 16.3894,20.7892 C16.039,21.0075 15.5813,21.206 15.0649,21.3742 C14.023,21.7137 12.6048,21.9749 11.0044,21.9820766 C7.57665,21.9973 4.36102,19.7187 3.52734,16.2324 C2.77803,13.099 2.78437,9.58413 3.38215,6.45043 C3.77823,4.37411 5.40456,2.79409 7.47634,2.43041 Z M13.9999,7.99988 C13.4476,7.99988 12.9999,8.44759 12.9999,8.99988 L12.9999,11.9999 C12.9999,12.5522 12.5522,12.9999 11.9999,12.9999 C11.4476,12.9999 10.9999,12.5522 10.9999,11.9999 L10.9999,8.99988 C10.9999,8.44759 10.5522,7.99988 9.99992,7.99988 C9.44764,7.99988 8.99992,8.44759 8.99992,8.99988 L8.99992,12.9999 C8.99992,13.5522 8.55221,13.9999 7.99992,13.9999 C7.44764,13.9999 6.99992,13.5522 6.99992,12.9999 L6.99992,8.99988 C6.99992,7.34302 8.34307,5.99988 9.99992,5.99988 C10.7683,5.99988 11.4692,6.28873 11.9999,6.76377 C12.5307,6.28873 13.2316,5.99988 13.9999,5.99988 C15.6568,5.99988 16.9999,7.34302 16.9999,8.99988 L16.9999,12.9999 C16.9999,13.5522 16.5522,13.9999 15.9999,13.9999 C15.4476,13.9999 14.9999,13.5522 14.9999,12.9999 L14.9999,8.99988 C14.9999,8.44759 14.5522,7.99988 13.9999,7.99988 Z" id="形状" fill="#09244B"></path>
            </g>
        </g>
    </g>
</svg>

<svg xmlns="http://www.w3.org/2000/svg" width="24" height="24"><g fill="none" fill-rule="evenodd"><path d="M24 0v24H0V0h24ZM12.594 23.258l-.012.002-.071.035-.02.004-.014-.004-.071-.036c-.01-.003-.019 0-.024.006l-.004.01-.017.428.005.02.01.013.104.074.015.004.012-.004.104-.074.012-.016.004-.017-.017-.427c-.002-.01-.009-.017-.016-.018Zm.264-.113-.014.002-.184.093-.01.01-.003.011.018.43.005.012.008.008.201.092c.012.004.023 0 .029-.008l.004-.014-.034-.614c-.003-.012-.01-.02-.02-.022Zm-.715.002a.023.023 0 0 0-.027.006l-.006.014-.034.614c0 .012.007.02.017.024l.015-.002.201-.093.01-.008.003-.011.018-.43-.003-.012-.01-.01-.184-.092Z"/><path fill="#09244B" d="M7.476 2.43a25.859 25.859 0 0 1 8.956-.016 5.109 5.109 0 0 1 4.163 4.143c.431 2.36.528 4.682.04 7.107-.286 1.428-2.021 2.772-4.026 3.133-1.55.278-6.484.422-8.11.203.438 2 4.634 1.653 5.5 1.5l.235-.043c.572-.105 1.45-.267 1.877-.181.61.123 1.152.553 1.15 1.227-.001.574-.414 1.001-.872 1.286-.35.218-.808.417-1.324.585-1.042.34-2.46.6-4.06.608-3.428.015-6.644-2.263-7.478-5.75-.749-3.133-.743-6.648-.145-9.782a5.03 5.03 0 0 1 4.094-4.02ZM14 8a1 1 0 0 0-1 1v3a1 1 0 1 1-2 0V9a1 1 0 1 0-2 0v4a1 1 0 1 1-2 0V9a3 3 0 0 1 5-2.236A3 3 0 0 1 17 9v4a1 1 0 1 1-2 0V9a1 1 0 0 0-1-1Z"/></g></svg>
